X:715
L:1/8
M:2/2
K:Bb
 d | B2 (FD) C (c2 d) | B2 (FD) FDdc | B(GF>TD) CEDC | B,FDE F(B B) :| g | fBdB fBeg | fBdf gccb | 
 fBdB dfbg | f(dc>TB) F (B2 g) | fBdf Bfdf | egdf gcce | dBFD FBfd | gecf dB B ||

